src/components/editor/svg/fullscreen.svg

<svg t="1635909523468" class="icon" viewBox="0 0 1024 1024" version="1.1" xmlns="http://www.w3.org/2000/svg" p-id="4121" width="16" height="16"><path d="M885.333333 640a32 32 0 0 0-32 32v136.106667l-162.773333-162.773334a32 32 0 0 0-45.226667 45.226667L808.106667 853.333333H672a32 32 0 0 0 0 64H896a21.333333 21.333333 0 0 0 21.333333-21.333333V672a32 32 0 0 0-32-32zM352 853.333333h-136.106667l162.773334-162.773333a32 32 0 0 0-45.226667-45.226667L170.666667 808.106667V672a32 32 0 0 0-64 0V896a21.333333 21.333333 0 0 0 21.333333 21.333333h224a32 32 0 0 0 0-64zM896 104.96H672a32 32 0 0 0 0 64H810.666667l-164.48 164.48a32 32 0 1 0 45.226666 45.226667L853.333333 215.893333v134.4a32 32 0 0 0 64 0V126.293333a21.333333 21.333333 0 0 0-21.333333-21.333333zM378.666667 333.44L215.893333 170.666667h137.813334a32 32 0 0 0 0-64H129.706667a21.333333 21.333333 0 0 0-21.333334 21.333333v224a32 32 0 0 0 64 0v-134.4l161.066667 161.066667a32 32 0 1 0 45.226667-45.226667z" fill="#d4d4d4" p-id="4122"></path></svg>

<svg class="icon" viewBox="0 0 1024 1024" xmlns="http://www.w3.org/2000/svg" width="16" height="16"><path d="M885.333 640a32 32 0 0 0-32 32v136.107L690.56 645.333a32 32 0 0 0-45.227 45.227l162.774 162.773H672a32 32 0 0 0 0 64h224A21.333 21.333 0 0 0 917.333 896V672a32 32 0 0 0-32-32zM352 853.333H215.893L378.667 690.56a32 32 0 0 0-45.227-45.227L170.667 808.107V672a32 32 0 0 0-64 0v224A21.333 21.333 0 0 0 128 917.333h224a32 32 0 0 0 0-64zM896 104.96H672a32 32 0 0 0 0 64h138.667l-164.48 164.48a32 32 0 1 0 45.226 45.227l161.92-162.774v134.4a32 32 0 0 0 64 0v-224A21.333 21.333 0 0 0 896 104.96zM378.667 333.44 215.893 170.667h137.814a32 32 0 0 0 0-64h-224A21.333 21.333 0 0 0 108.373 128v224a32 32 0 0 0 64 0V217.6L333.44 378.667a32 32 0 1 0 45.227-45.227z" fill="#d4d4d4"/></svg>
